!!!!SEGMENT: pl-kk--kk-i-387--005_anonim--oycze-nasz.krn
!!!cenid: 18xx:1419
!!!COM: Anonim
!!!COM-rismid: pe30004985
!!!CDT:
!!!CNT:
!!!OTL: Oycze nasz
!!!PDT:
!!!AGN: Sacred
!!!SMS-siglum: PL-Kk
!!!SMS-shelfmark: Kk.I.387
!!!SMS-shelfwork: 005 W
!!!SMS-variant:
!!!SMS-altvar:
!!!NIFC-rismid: 1001138315
!!!URL-scan: http://repozytorium.nifc.pl/skany/pl-kk-nut--i-387
!!!ONB-nifc:
**kern	**text	**kern	**text	**kern	**text	**kern	**text	**dynam
*part4	*part4	*part3	*part3	*part2	*part2	*part1	*part1	*part1
*staff4	*staff4	*staff3	*staff3	*staff2	*staff2	*staff1	*staff1	*
*Ibass	*	*Itenor	*	*Ialto	*	*Isoprn	*	*
*I"Basso.	*	*I"Tenore	*	*I"Alto	*	*I"Soprano.	*	*
*I'B	*	*I'T	*	*I'A	*	*I'S	*	*
*clefF4	*	*clefC4	*	*clefC3	*	*clefC1	*	*
*k[b-e-a-d-]	*	*k[b-e-a-d-]	*	*k[b-e-a-d-]	*	*k[b-e-a-d-]	*	*
*A-:	*	*	*	*A-:	*	*A-:	*	*
*M4/4	*	*M4/4	*	*M4/4	*	*M4/4	*	*
*met(C.)	*	*met(C.)	*	*met(C.)	*	*met(C.)	*	*
=1	=1	=1	=1	=1	=1	=1	=1	=1
*2\right	*	*2\right	*	*2\right	*	*2\right	*	*
!LO:TX:t=P:problem:all\right:global	!	!LO:TX:t=P:problem:all\right:global	!	!LO:TX:t=P:problem:all\right:global	!	!LO:TX:t=P:problem:all\right:global	!	!
!	!	!	!	!	!	!LO:TX:t=P:problem:znaki: ee- zamiast e-, dd- zamiast d-	!	!
!LO:TX:i:a:t=Offertorium.	!	!LO:TX:i:a:t=Offertorium.	!	!LO:TX:i:a:t=Offertorium.	!	!LO:TX:i:a:t=Offertorium.	!	!
!LO:TX:i:a:t=No 5.	!	!LO:TX:i:a:t=No 5.	!	!LO:TX:i:a:t=No 5	!	!LO:TX:i:a:t=No 5.	!	!
!LO:TX:a:t=P:problem: napis "Basso." nad pięciolinią	!	!LO:TX:a:t=P:problem: napis "Tenore" nad pięciolinią	!	!LO:TX:a:t=P:problem: napis "Alto" nad pięciolinią	!	!LO:TX:a:t=P:problem: napis "Soprano." nad pięciolinią	!	!
!LO:TX:a:t=P:problem: napis "No 5." przed kluczem	!	!LO:TX:a:t=P:problem: napis "No 5." przed kluczem	!	!LO:TX:a:t=P:problem: napis "No 5" przed kluczem	!	!LO:TX:a:t=P:problem: napis "No 5." przed kluczem	!	!
2.AA-/	Oy-	2.A-\	Oy-	2e-\	Oy-	2cc\	Oy-	.
.	.	.	.	4f\	.	4dd-\	.	.
4AA-/	-cze	4A-\	-cze	4e-\	-cze	4cc\	-cze	.
=2	=2	=2	=2	=2	=2	=2	=2	=2
4.AA-/	Oy-	4.G/	Oy-	4.e-\	Oy-	4.cc\	Oy-	.
8AA-/	-cze	8G/	-cze	8d-\	-cze	8b-\	-cze	.
4AA-/	nasz	4A-/	nasz	4c\	nasz	4a-\	nasz,	.
4r	.	4r	.	4r	.	4r	.	.
=3	=3	=3	=3	=3	=3	=3	=3	=3
4AA-/	Kto-	2A-\	Kto-	4c\	Kto-	4.ee-\	Kto-	.
4C/	.	.	.	4e-\	.	.	.	.
.	.	.	.	.	.	16cc\LL	.	.
.	.	.	.	.	.	16a-\JJ	.	.
4D-/	-rys	8A-\L	-ryś	4d-\	-rys	4.ff\	-rys	.
.	.	8An\J	.	.	.	.	.	.
4D-/	iest	4B-\	iest	4f\	iest	.	.	.
.	.	.	.	.	.	8dd-\	iest	.
=4	=4	=4	=4	=4	=4	=4	=4	=4
4E-\	w Nie-	4A-X/	w Nie-	4e-\	w Nie-	4cc\	w Nie-	.
4E-\	-bie,	4G/	-bie	4e-\	-bie,	4b-\	-bie,	.
4r	.	4r	.	4r	.	4r	.	.
4E-\	ah	4E-/	ah	4g\	ah	4b-\	ah	.
!	!	!	!	!LO:LB:g=original	!	!LO:LB:g=original	!	!
=5	=5	=5	=5	=5	=5	=5	=5	=5
2AA-/	swięc	(>4.E-/	swięć	4.a-\	swięć	4.cc\	swięć	.
.	.	8A-\)	.	8e-\	.	8a-\	.	.
4AA-/	się	4c\	się	4e-\	się	4cc\	sie	.
4r	.	8r	.	8r	.	8r	.	.
.	.	8A-\	ah	8e-\	ah	8cc\	ah	.
!LO:LB:g=original	!	!LO:LB:g=original	!	!	!	!	!	!
=6	=6	=6	=6	=6	=6	=6	=6	=6
2BB-/	swięc	(>4.G/	swięc	4.e-\	swięc	4.dd-\	swięć	.
.	.	8B-\)	.	8g\	.	8b-\	.	.
4BB-/	się	4d-\	się	4e-\	się	4dd-\	się	.
4r	.	8r	.	8r	.	8r	.	.
.	.	8B-\	ah	8g\	ah	8e-/	ah	.
=7	=7	=7	=7	=7	=7	=7	=7	=7
2C/	J-	2A-\	swięć	4a-\	swięc	2ee-\	swięć	.
.	.	.	.	4e-\	.	.	.	.
4AA-/	.	2A-\	się	2e-\	się	8dd-\L	.	.
.	.	.	.	.	.	8cc\J	.	.
4C/	-mie	.	.	.	.	8b-\L	sie	.
.	.	.	.	.	.	8a-\J	.	.
=8	=8	=8	=8	=8	=8	=8	=8	=8
2.C/	J-	(<4A-/	J-	(>2e-\	J-	2a-\	J-	.
.	.	4G-X/	.	.	.	.	.	.
.	.	4G-/)	.	4a-\)	.	8a-\L	.	.
.	.	.	.	.	.	8cc\J	.	.
!	!	!LO:TX:t=P:problem:mixed beam	!	!	!	!	!	!
4C/	-mie	8G-/L	-mie	4a-\	-mie	8ee-\L	-mie	.
.	.	8e-\J	.	.	.	8gg-X\J	.	.
!	!	!	!	!	!	!LO:LB:g=original	!	!
=9	=9	=9	=9	=9	=9	=9	=9	=9
4C/	two-	4e-\	two-	4a-\	two-	4gg-X\	two-	.
4D-/	-ie	4d-\	-ie,	4a-\	-ie	4ff\	-ie	.
!	!	!	!	!LO:LB:g=original	!	!	!	!
4r	.	4r	.	4r	.	4r	.	.
8r	.	4d-\	ah	4a-\	ah	4ff\	ah	.
8D-\	ah	.	.	.	.	.	.	.
=10	=10	=10	=10	=10	=10	=10	=10	=10
2E-\	swięc	2c\	swięć	2.a-\	swięć	2ee-\	swięć	.
4F\	.	4Bn\	.	.	.	4ddn\	.	.
4G\	się	4B-X\	się	4b-\	się	4dd-X\	sie	.
=11	=11	=11	=11	=11	=11	=11	=11	=11
4A-\	J-	(>2c\	J-	2.a-\	J-	4cc\	J-	.
4G-X\	.	.	.	.	.	4ee-\	-mie	.
4F\	.	4A-\)	.	.	.	8ee-\L	J-	.
.	.	.	.	.	.	8dd-\J	.	.
4D-\	-mie	4A-\	-mie	4f\	-mie	8cc\L	-mie	.
.	.	.	.	.	.	8b-\J	.	.
!LO:LB:g=original	!	!LO:LB:g=original	!	!	!	!	!	!
=12	=12	=12	=12	=12	=12	=12	=12	=12
1E-	two-	2A-/	two-	1e-	two-	2.cc\	two-	.
.	.	2G/	.	.	.	.	.	.
.	.	.	.	.	.	4b-\	.	.
=13	=13	=13	=13	=13	=13	=13	=13	=13
4AA-/	-ie	4A-/	-ie,	4c\	-ie.	4a-\	-ie.	.
4r	.	4r	.	4r	.	4r	.	.
!	!	!	!	!	!	!LO:LB:g=original	!	!
2AA-/	przyidz	2A-\	przyidz	2e-\	przyidź	2a-\	przyidź	.
=14	=14	=14	=14	=14	=14	=14	=14	=14
2GG/	Pa-	2B-\	Pa-	2e-\	Pa-	2b-\	Pa-	.
4AA-/	.	2A-\	-nie	2e-\	-nie	2a-\	-nie	.
4C/	-nie	.	.	.	.	.	.	.
=15	=15	=15	=15	=15	=15	=15	=15	=15
2E-\	Kro-	2G/	Kro-	2e-\	Kro-	2b-\	Kro-	.
4E-\	-le-	4G/	-le-	4e-\	-le-	4b-\	-le-	.
4D-\	-stwo	4G/	-stwo	4e-\	-stwo	4b-\	-stwo	.
!	!	!	!	!LO:LB:g=original	!	!	!	!
=16	=16	=16	=16	=16	=16	=16	=16	=16
2C/	Kro-	2A-\	Kro-	2e-\	Kro-	2ee-\	Kro-	.
4BB-/	-le-	4A-/	-le-	4e-\	-le-	4dd-X\	-le-	.
4BB-/	-stwo	4G/	-stwo	4e-\	-stwo	4dd-\	-stwo	.
=17	=17	=17	=17	=17	=17	=17	=17	=17
4AA-/	two-	4A-/	two-	4e-\	two-	4cc\	two-	.
4AA-/	-ie	4A-/	-ie,	4e-\	-ie	4cc\	-ie	.
4r	.	4r	.	4r	.	4r	.	.
4AA-/	bądz	4A-/	bądź	4e-\	bądź	4cc\	bądź	.
!	!	!LO:LB:g=original	!	!	!	!	!	!
=18	=18	=18	=18	=18	=18	=18	=18	=18
2AA-/	wo-	2F/	wo-	2dn\	wo-	2b-\	wo-	.
!LO:LB:g=original	!	!	!	!	!	!	!	!
2AA-/	-la	4F/	.	2d\	-la	4cc\	.	.
.	.	4B-\	-la	.	.	4b-\	-la	.
!	!	!	!	!	!	!LO:LB:g=original	!	!
=19	=19	=19	=19	=19	=19	=19	=19	=19
2GG/	bądź	2B-\	bądź	(>4e-\	bądź	4ee-\	bądź	.
.	.	.	.	4g\)	.	4b-\	.	.
4G\	wo-	4B-\	wo-	4g\	wo-	4ee-\	wo-	.
4E-\	-la	4B-\	-la	4g\	-la	4gg\	-la	.
=20	=20	=20	=20	=20	=20	=20	=20	=20
!	!	!	!	!	!	!LO:TX:a:t=P:problem:oznaczenie dynamiczne na pięciolinii przed nutą	!	!LO:DY:b:rj
2.Dn\	two-	2.Bn\	two-	2.g\	two-	2.gg\	two-	f
4D\	-ia	4B\	-ia	4g\	-ia	4ff\	-ia,	.
=21	=21	=21	=21	=21	=21	=21	=21	=21
4C/	ia-	4c\	ia-	4g\	ia-	4ee-\	ia-	.
4GG/	-ko	4B-\	-ko	4b-\	-ko	4ddn\	-ko	.
!	!	!	!	!LO:LB:g=original	!	!	!	!
4AA-/	w Nie-	4c\	w Nie-	4a-\	w Nie-	4cc\	w Nie-	.
4AA-/	-bie	4c\	-bie	4a-\	-bie	8gg\L	-bie	.
.	.	.	.	.	.	8ff\J	.	.
=22	=22	=22	=22	=22	=22	=22	=22	=22
2BB-/	tak	4B-\	tak	(>4g\	tak	2ee-\	tak	.
.	.	4An\	.	4f#X\)	.	.	.	.
4BB-/	i	4A-X\	i	4fn\	i	4ee-\	i	.
4BB-/	na	4A-\	na	4f\	na	4ddn\	na	.
=23	=23	=23	=23	=23	=23	=23	=23	=23
8E-\	Zie-	8G/	Zie-	8e-\	Zie-	8ff\	Zie-	.
8E-\	-mi	8G/	-mi	8e-\	-mi	8ee-\	-mi	.
4r	.	4r	.	4r	.	4r	.	.
!	!	!LO:LB:g=original	!	!	!	!LO:LB:g=original	!	!
2r	.	4E-/	chle-	4e-\	Chle-	4e-/	chle-	.
.	.	4G/	-ba	4e-\	-ba	4g/	-ba	.
=24	=24	=24	=24	=24	=24	=24	=24	=24
!LO:TX:a:t=I.	!	!	!	!	!	!	!	!
1r	.	2G/	na-	2e-\	na-	2b-\	na-	.
.	.	4A-\	-sze-	4e-\	-sze-	4cc\	-sze-	.
.	.	4A-\	-go	4e-\	-go	4cc\	-go,	.
!LO:LB:g=original	!	!	!	!	!	!	!	!
=25	=25	=25	=25	=25	=25	=25	=25	=25
4r	.	2B-\	po-	2e-\	po-	(>2dd-\	po-	.
2E-\	po-	.	.	.	.	.	.	.
.	.	2G/	-wszed-	2e-\	-wszed-	4b-\)	.	.
4D-X\	-wszed-	.	.	.	.	4b-\	-wszed-	.
=26	=26	=26	=26	=26	=26	=26	=26	=26
2C/	-nie-	2A-/	-nie-	2e-\	-nie-	2cc\	-nie-	.
2BB-/	-go	2B-\	-go	2e-\	-go	2dd-\	-go	.
!	!	!	!	!LO:LB:g=original	!	!	!	!
=27	=27	=27	=27	=27	=27	=27	=27	=27
2.AA-/	day	(>2c\	dai	2e-\	dai	2ee-\	dai	.
.	.	4A-\)	.	2e-\	nam	4cc\	.	.
4C/	nam	4A-\	nam	.	.	4a-\	nam	.
=28	=28	=28	=28	=28	=28	=28	=28	=28
4D-/	dzi-	4A-\	dzi-	4d-\	dzi-	4ff\	dzi-	.
4AA-/	-siay	4c\	-siai,	4a-\	-siay,	4ee-\	-siai	.
!	!	!	!	!	!	!LO:LB:g=original	!	!
4r	.	4r	.	4r	.	4r	.	.
8C/	i	8A-\	i	8e-\	i	8a-\	i	.
8C/	od-	8A-\	od-	8e-\	od-	8a-\	od-	.
!	!	!LO:LB:g=original	!	!	!	!	!	!
=29	=29	=29	=29	=29	=29	=29	=29	=29
4.D-\	-puść	4.A-\	-puść	4.f\	-puść	4.b-\	-puść	.
8D-\	nam	8A-\	nam	8f\	nam	8b-\	nam	.
4E-\	na-	4A-\	na-	4e-\	na-	4b-\	na-	.
4E-\	-sze	4A-\	-sze	4e-\	-sze	4b-\	-sze	.
=30	=30	=30	=30	=30	=30	=30	=30	=30
4F-X\	wi-	4A-\	wi-	4f-X\	wi-	4b-\	wi-	.
4F-\	-ny	4A-\	-ny,	4f-\	-ny,	4b-\	-ny	.
!LO:LB:g=original	!	!	!	!	!	!	!	!
4r	.	4r	.	4r	.	4r	.	.
8E-\	i	8G/	i	8e-\	i	8b-\	i	.
8D-\	od-	8G/	od-	8e-\	od-	8b-\	od-	.
=31	=31	=31	=31	=31	=31	=31	=31	=31
2C/	-puść	2A-\	-puść	2e-\	-puść	2ee-\	-puść	.
!	!	!	!	!LO:LB:g=original	!	!	!	!
4C/	nam	4A-\	nam	4e-\	nam,	4a-\	nam,	.
8C/	na-	8A-\	na-	8e-\	i	8a-\	i	.
8C/	-sze	8A-\	-sze	8e-\	od-	8a-\	od-	.
!	!	!	!	!	!	!LO:LB:g=original	!	!
=32	=32	=32	=32	=32	=32	=32	=32	=32
2D-\	wi-	2A-\	wi-	2d-\	-puść	2ff\	-puść	.
4D-\	-ny	4A-\	-ny	4f\	nam	4a-\	nam	.
8D-\	na-	8A-\	na-	8f\	na-	8a-\	na-	.
8D-\	-sze	8A-\	-sze	8f\	-sze	8a-\	-sze	.
!	!	!LO:LB:g=original	!	!	!	!	!	!
=33	=33	=33	=33	=33	=33	=33	=33	=33
2Dn\	Wi-	2c-X\	wi-	2f\	wi-	2aa-\	wi-	.
4D\	-ny	4c-\	-ny,	4f\	-ny	4aa-\	-ny	.
8F\	ia-	8c-\	ia-	8a-\	ia-	8ddn\	ia-	.
8F\	-ko	8c-\	-ko	8a-\	-ko	8dd\	-ko	.
=34	=34	=34	=34	=34	=34	=34	=34	=34
4E-\	i	4cn\	i	4a-\	i	4ee-\	i	.
4E-\	my	4c\	my	4a-\	my	4ee-\	my	.
4E-\	od-	4B-\	od-	4g\	od-	4ee-\	od-	.
4En\	-pusz-	4B-\	-pusz-	4g\	-pusz-	4dd-X\	-pusz-	.
!LO:LB:g=original	!	!	!	!	!	!	!	!
=35	=35	=35	=35	=35	=35	=35	=35	=35
4F\	-cza-	4A-\	-cza-	4a-\	-cza-	4cc\	-cza-	.
4G-X\	-my	4A-\	-my	4g-X\	-my	4cc\	-my	.
!	!	!	!	!LO:LB:g=original	!	!	!	!
4F\	na-	4A-\	na-	4f\	na-	8ee-\L	na-	.
.	.	.	.	.	.	8dd-X\J	.	.
4D-\	-szym	8An\L	-szem	4f\	-szym	8cc\L	-szem	.
.	.	8B-\J	.	.	.	8b-\J	.	.
!	!	!	!	!	!	!LO:LB:g=original	!	!
=36	=36	=36	=36	=36	=36	=36	=36	=36
2E-\	wi-	2E-/	wi-	2e-\	wi-	4a-\	wi-	.
.	.	.	.	.	.	2cc\	.	.
2E-\	-no-	2G/	-no-	2e-\	-no-	.	.	.
.	.	.	.	.	.	4b-\	-no-	.
=37	=37	=37	=37	=37	=37	=37	=37	=37
.	.	.	.	.	.	8qb-/	.	.
4AA-/	-way-	4A-\	-wai-	4a-\	-way-	4a-\	wai-	.
4AA-/	-com	4A-\	-com	4a-\	-com	4a-\	-com,	.
!	!	!LO:LB:g=original	!	!	!	!	!	!
4r	.	4r	.	4r	.	4r	.	.
4AA-/	i	4A-\	i	4a-\	i	4a-\	i	.
=38	=38	=38	=38	=38	=38	=38	=38	=38
2AA-/	nie	2A-\	nie	2a-\	nie	2a-\	nie	.
4C-X/	wodź	4c-X\	wodź	4cc-X\	wodź	4cc-X\	wodź	.
4AA-/	nas	4A-\	nas	4a-\	nas	4a-\	nas	.
=39	=39	=39	=39	=39	=39	=39	=39	=39
2AA-/	na	2c-X\	na	2a-\	na	2ff-X\	na	.
4A-\	po-	4c-\	po-	4a-\	po-	4ff-\	po-	.
4A-\	-ku-	4c-\	-ku-	4a-\	-ku-	4ee-\	-ku-	.
=40	=40	=40	=40	=40	=40	=40	=40	=40
2A-\	-sze-	2c-X\	-sze-	2a-\	-sze-	2ddn\	-sze-	.
4G\	-nie	4B-\	-nie	4g\	-nie	4ee-\	-nie,	.
4r	.	4r	.	4r	.	4r	.	.
!LO:LB:g=original	!	!	!	!LO:LB:g=original	!	!LO:LB:g=original	!	!
=41	=41	=41	=41	=41	=41	=41	=41	=41
4GG/	i	4G/	i	4g\	i	4g\	i	.
4GG/	nie	4G/	nie	4g\	nie	4g\	nie	.
4BB-/	wodź	4B-/	wodź	4b-\	wodź	4b-\	wodz	.
4GG/	nas	4G/	nas	4g\	nas	4g\	nas	.
=42	=42	=42	=42	=42	=42	=42	=42	=42
2GG/	na	2B-\	na	2g\	na	2ee-\	na	.
4G\	po-	4B-\	po-	4g\	po-	4ee-\	po-	.
4G\	-ku-	4B-\	-ku-	4g\	-ku-	4dd-X\	-ku-	.
!	!	!LO:LB:g=original	!	!	!	!	!	!
=43	=43	=43	=43	=43	=43	=43	=43	=43
2G-X\	-sze-	2An\	-sze-	2g-X\	-sze-	2cc\	-sze-	.
4F\	-nie	4A-X\	-nie,	4f\	-nie	4dd-\	-nie	.
4r	.	4r	.	4r	.	4r	.	.
=44	=44	=44	=44	=44	=44	=44	=44	=44
2F\	a-	4r	.	2f\	a-	4r	.	.
.	.	2A-\	a-	.	.	2dd-X\	ale	.
2F-X\	-le	.	.	2f-X\	-le	.	.	.
.	.	4A-\	-le	.	.	4dd-\	.	.
=45	=45	=45	=45	=45	=45	=45	=45	=45
2E-\	nas	2G/	nas	2e-\	nas	4.dd-\	nas	.
.	.	.	.	.	.	8b-\	.	.
4E-\	zbaw	4G/	zbaw	4e-\	zbaw	4g\	zbaw	.
4r	.	4r	.	4r	.	4r	.	.
!	!	!	!	!	!	!LO:LB:g=original	!	!
=46	=46	=46	=46	=46	=46	=46	=46	=46
2.F-X\	o-	4r	.	2.f-X\	o-	4r	.	.
.	.	2A-\	o-	.	.	2dd-X\	o-	.
4F-\	-de	4A-\	-de	4f-\	-de	4dd-\	-de	.
!LO:LB:g=original	!	!	!	!LO:LB:g=original	!	!	!	!
=47	=47	=47	=47	=47	=47	=47	=47	=47
2E-\	złe-	2G/	złe-	2e-\	złe-	4.dd-X\	złe-	.
.	.	.	.	.	.	8b-\	.	.
4E-\	-go,	4G/	-go,	4e-\	-go,	4g\	-go,	.
4D-X\	o	4G/	o	4e-\	o	4b-\	o	.
=48	=48	=48	=48	=48	=48	=48	=48	=48
2C/	wiel-	2A-\	wiel-	2e-\	wiel-	4.ee-\	wiel-	.
.	.	.	.	.	.	8cc\	.	.
!	!	!LO:LB:g=original	!	!	!	!	!	!
4C/	-ki,	4A-\	-ki,	4e-\	-ki	4a-\	-ki,	.
4C/	po-	4A-\	po-	4e-\	po-	4a-\	po-	.
=49	=49	=49	=49	=49	=49	=49	=49	=49
4.D-\	-tęz-	4.A-\	-tęż-	4.d-\	-tęż-	4.ff\	-tęż-	.
8D-\	-ny	8An\	-ny	8d-\	-ny	8ff\	-ny	.
4D-\	nie-	4B-\	nie-	4d-\	nie-	4ff\	nie-	.
4D-\	-smier-	4B-\	-smier-	8d-\L	-smier-	8dd-X\L	-smier-	.
.	.	.	.	8f\J	.	8b-\J	.	.
=50	=50	=50	=50	=50	=50	=50	=50	=50
2E-\	tel-	2.A-\	-tel-	2e-\	-tel-	4cc\	-tel-	.
.	.	.	.	.	.	4bn\	-ny	.
!	!	!	!	!	!	!LO:LB:g=original	!	!
2E-\	ny	.	.	2e-\	-ny	2b-X\	nasz	.
.	.	4G/	-ny	.	.	.	.	.
=51	=51	=51	=51	=51	=51	=51	=51	=51
4AA-/	Bo-	4A-\	Bo-	4a-\	Bo-	4a-\	Bo-	.
4AA-/	-że,	4A-\	-że,	4a-\	-że	4a-\	-że,	.
4r	.	4r	.	4r	.	4r	.	.
4AA-/	nas	4A-\	nas	8c\	a-	8a-\	a-	.
.	.	.	.	8c\	-le	8a-\	-le	.
!	!	!	!	!LO:LB:g=original	!	!	!	!
=52	=52	=52	=52	=52	=52	=52	=52	=52
2AA-/	zbaw	2A-\	zbaw	4e-\	nas	4cc\	nas	.
.	.	.	.	4e-\	zbaw	4cc\	zbaw	.
!LO:LB:g=original	!	!	!	!	!	!	!	!
4.AA-/	o-	4.A-\	o-	4.g-X\	o-	4.cc\	o-	.
8AA-/	-de	8A-\	-de	8g-\	-de	8cc\	-de	.
=53	=53	=53	=53	=53	=53	=53	=53	=53
4D-\	złe-	4A-\	złe-	4f\	złe-	4dd-X\	złe-	.
4D-\	-go	4A-\	-go	4f\	-go	4dd-\	-go,	.
!	!	!	!	!	!	!LO:TX:i:a:t=Volti Subitto.	!	!
!	!	!	!	!	!	!LO:TX:a:t=P:problem:napis za kreską na pięciolinii	!	!
2r	.	2r	.	2r	.	2r	.	.
!	!	!LO:LB:g=original	!	!	!	!LO:PB:g=original	!	!
=54	=54	=54	=54	=54	=54	=54	=54	=54
!	!	!	!	!	!	!LO:TX:a:t=P:problem:znaki w źródle:b-,e-,a-,dd-	!	!
2BB-/	zbaw	2A-\	zbaw	2f\	zbaw	2ddn\	zbaw	.
4BB-/	o-	4A-\	o-	4f\	o-	4dd\	o-	.
4BB-/	-de	4F/	-de	4a-\	-de	4dd\	-de	.
=55	=55	=55	=55	=55	=55	=55	=55	=55
4E-\	złe-	4G/	złe-	4g\	złe-	4ee-\	złe-	.
4E-\	-go	4G/	-go	4g\	-go	4ee-\	-go,	.
4r	.	4r	.	4r	.	4r	.	.
4E-\	zbaw	[>4B-\	zbaw	4g\	zbaw	4ee-\	zbaw	.
=56	=56	=56	=56	=56	=56	=56	=56	=56
2.C/	o-	2.B-\]	o-	2.g\	o-	2.een\	o-	.
4C/	-de	4B-\	-de	4b-\	-de	4ee\	-de	.
=57	=57	=57	=57	=57	=57	=57	=57	=57
4D-X\	złe-	8.A-\L	złe-	8.a-\L	złe-	8.ff\L	złe-	.
.	.	16B-\Jk	.	16g\Jk	.	16gg\Jk	.	.
4Dn\	-go	4c-X\	-go	4f\	-go	4aa-\	-go	.
!LO:LB:g=original	!	!	!	!LO:LB:g=original	!	!	!	!
4r	.	4r	.	4r	.	4r	.	.
4Dn\	a-	4c-\	a-	4a-\	a-	4ff\	a-	.
=58	=58	=58	=58	=58	=58	=58	=58	=58
2.E-\	.	4cn\	-men	4a-\	.	2.ee-\	.	.
.	.	8B-\L	a-	8g\L	.	.	.	.
.	.	8c\J	.	8a-\J	.	.	.	.
.	.	4d-\	.	4b-\	.	.	.	.
4E-\	-men	4B-\	-men	4g\	-men	4ee-\	-men	.
!	!	!LO:LB:g=original	!	!	!	!	!	!
=59	=59	=59	=59	=59	=59	=59	=59	=59
1AA-	a-	4A-/	a-	4a-\	a-	4cc\	a-	.
.	.	4G-X/	.	4e-\	.	2.a-\	.	.
.	.	4F/	.	2d-\	.	.	.	.
.	.	4F-X/	.	.	.	.	.	.
=60	=60	=60	=60	=60	=60	=60	=60	=60
1AA-;>	-men.	1E-;>	-men.	1c;>	-men.	1a-;>	-men.	.
==	==	==	==	==	==	==	==	==
*-	*-	*-	*-	*-	*-	*-	*-	*-
!!!system-decoration: [(s1,s2,s3,s4)]
!!!RDF**kern: > = above
!!!RDF**kern: < = below
!!!EED: Mateusz Mrugas
!!!EST: 2021-01-16
!!!ENC: Katarzyna Serwa
!!!END: 2021-01-12
